X: 211
T: b Handsome Young Maidens, The
M: 6/8
R:Jig
L: 1/8
C: Charlie Lennon
K:Amaj
g | aed cdB | Ace aga | bee dee | Bee bag |
aed cdB | Ace aga | bee dBG | BAG A2 :|
B | c2 A EAc | dff fed | cde aec | Bff fed |
c2 A EAc | dff fed |1 cde aec | dBe A2 B :|ede fef | gfg bag ||


